X: 4
T: The Hunter's Purse
R: reel
M: 4/4
L: 1/8
K: Edor
|:BE E2 EDBA|D2 ED FA A2|G3A B3A|(3FGA Bc dBAd|
BE E2 EDBA|D2 ED FA A2|GFGA B3A|GEFD E3d:|
|:Be e2 edBc|d2 ec dB A2|G3A B3A|(3FGA Bc dBAd|
Be e2 edBc|d2 ec dBAF|GFGA B3A|GEFD E3d:|


Tune 283	Setting 13034

